icons/svg/16x16/help squircle/outline.svg

<svg xmlns="http://www.w3.org/2000/svg" width="16" height="16" viewBox="0 0 16 16">
  <path fill-rule="evenodd" d="M10.9761,6.1211 C11.2331,7.0721 11.0591,8.0101 10.4831,8.7631 C10.1071,9.2531 9.5801,9.6241 9.0001,9.8271 L9.0001,11.0001 C9.0001,11.5531 8.5521,12.0001 8.0001,12.0001 C7.4481,12.0001 7.0001,11.5531 7.0001,11.0001 L7.0001,9.0001 C7.0001,8.4471 7.4481,8.0001 8.0001,8.0001 C8.3331,8.0001 8.6841,7.8221 8.8941,7.5481 C9.0881,7.2941 9.1391,6.9901 9.0451,6.6441 C8.9581,6.3231 8.5661,6.0531 8.0921,5.9871 C7.8381,5.9531 7.2061,5.9331 6.8571,6.5151 C6.5731,6.9881 5.9571,7.1411 5.4861,6.8571 C5.0121,6.5731 4.8581,5.9591 5.1431,5.4851 C5.8011,4.3881 7.0341,3.8161 8.3671,4.0061 C9.6521,4.1841 10.6761,5.0151 10.9761,6.1211 M12.6541,11.2491 C12.5031,11.9511 11.9511,12.5031 11.2491,12.6541 C10.1891,12.8841 9.0961,13.0001 8.0001,13.0001 C6.9041,13.0001 5.8111,12.8841 4.7501,12.6541 C4.0491,12.5031 3.4971,11.9511 3.3451,11.2491 C3.1161,10.1891 3.0001,9.0961 3.0001,8.0001 C3.0001,6.9031 3.1161,5.8101 3.3451,4.7501 C3.4971,4.0491 4.0491,3.4971 4.7501,3.3461 C5.8111,3.1161 6.9041,3.0001 8.0001,3.0001 C9.0961,3.0001 10.1891,3.1161 11.2491,3.3461 C11.9511,3.4971 12.5031,4.0491 12.6541,4.7511 C12.8841,5.8111 13.0001,6.9041 13.0001,8.0001 C13.0001,9.0961 12.8841,10.1881 12.6541,11.2491 M14.6091,4.3281 C14.2911,2.8561 13.1431,1.7091 11.6721,1.3911 C10.4881,1.1351 9.2601,1.0001 8.0001,1.0001 C6.7401,1.0001 5.5121,1.1351 4.3281,1.3911 C2.8561,1.7081 1.7091,2.8561 1.3911,4.3281 C1.1351,5.5121 1.0001,6.7401 1.0001,8.0001 C1.0001,9.2601 1.1351,10.4881 1.3911,11.6721 C1.7091,13.1431 2.8561,14.2911 4.3281,14.6091 C5.5121,14.8651 6.7401,15.0001 8.0001,15.0001 C9.2601,15.0001 10.4881,14.8651 11.6721,14.6091 C13.1431,14.2911 14.2911,13.1431 14.6091,11.6721 C14.8651,10.4881 15.0001,9.2601 15.0001,8.0001 C15.0001,6.7401 14.8651,5.5121 14.6091,4.3281"/>
</svg>

<svg width="16" height="16" fill="none" xmlns="http://www.w3.org/2000/svg">
  <path fill-rule="evenodd" clip-rule="evenodd" d="M8 4a3.012 3.012 0 00-2.598 1.499 1 1 0 101.731 1.002A1.001 1.001 0 118 8H7v2h1c1.654 0 3-1.346 3-3S9.654 4 8 4zm-1 8h2v-1H7v1zm5.654-.75a1.835 1.835 0 01-1.405 1.404C10.19 12.884 9.096 13 8 13s-2.189-.116-3.25-.346a1.838 1.838 0 01-1.405-1.405A15.413 15.413 0 013 8c0-1.097.116-2.19.345-3.25A1.838 1.838 0 014.75 3.346 15.364 15.364 0 018 3c1.096 0 2.19.116 3.25.346a1.835 1.835 0 011.404 1.405c.23 1.06.346 2.153.346 3.25 0 1.095-.116 2.187-.346 3.248zm1.955-6.922a3.831 3.831 0 00-2.937-2.937A17.357 17.357 0 008 1.001c-1.26 0-2.488.134-3.672.39a3.828 3.828 0 00-2.937 2.937A17.357 17.357 0 001.001 8c0 1.26.134 2.488.39 3.672a3.831 3.831 0 002.937 2.937 17.422 17.422 0 007.344.001 3.832 3.832 0 002.937-2.938 17.422 17.422 0 00.001-7.344z" fill="#000"/>
</svg>
